X: 6
T: The Ashplant
R: reel
M: 4/4
L: 1/8
K: Edor
ABE2 BAGA | BE~E2 DEGE | ABBA Bded | gedB A2GA |
ABe2 BAGA | BDEG DEGE | ABBA Bded | gedB A2GA |
~B2eB fge2 | B2ed BAGA | ~B2dB ~g3a | gedB (3A_BA GA |
ABeB fge2 | ~B2ed BAGA | B/c/d ef g2ag| gedB A2GA |


Tune 726	Setting 26532

